X: 23600
T: Lillibullero
R: jig
M: 6/8
K: Dmajor
D3 F3|EFE G3|FAD G2 F|EFG A3|
D3 F3|EFE G3|FAD G2 F|E3 D3||
d2 c d2 A|AB=c B2 A|ABc dAB|AGF E2 A|
BAG FGA|BAG FGA|BdD G2 F|E3 D3||

